X:53
T:Minuet,(Melody). BC.53
M:3/4
L:1/8
Q:120
S:Benjamin Cooke MS.circa 1770, F.Kidson Coll.
R:Minuet
O:England
A:x
Z:vmp.John Bagnall
V:1
K:D
 A2 AAAA | d4 e2 |  fgafed | T e2 dcBA | B2 d4 | A2 d2 G2 | F/E/D "tr "E4 | {E}D6 ||
 f2 ffff | Te4 a2 | df e2 d2 | Tc4 d2 | e2 f2 ^g2 | a2 e2 d2 | c/B/A TB3 A |A6 |
 Ad f2 A2 | GB e2 G2 |FA d2 F2 | E6 | {a}g2 f2 e2 | fg af ed | g/f/e e3 d | d6 |]
V:2
K:D
F2 D2 A2 | TF4 A2 | d2 D2 F2 | TA4 A2 | G2 GGGG | F2 F2 E2 | DF A2 A2 | {G}F6 ||
d2 dddd | T c4 A2 | Bd c2 B2 | A4 B2 | c2 d2 B2 | c2 c2 B2 | A2 T^G3 A | A2 AGFE |
F2 z2 F2 | E2 z2 E2 |  D2 F2 D2 | A2 G2 F2 | e2 d2 c2 | de f2 d2 | GA TF3 E | D6 |]

